brandFactory_export/3.Masa/Configurar modem_3Masa.svg

<?xml version="1.0" encoding="UTF-8"?>
<svg width="24px" height="24px" viewBox="0 0 24 24" version="1.1" xmlns="http://www.w3.org/2000/svg" xmlns:xlink="http://www.w3.org/1999/xlink">
    <title>3.Masa/Configurar modem_3Masa</title>
    <g id="Symbols" stroke="none" stroke-width="1" fill="none" fill-rule="evenodd">
        <g id="3.Masa/Configurar-modem_3Masa" fill="#5CB615" fill-rule="nonzero">
            <path d="M4.27226891,4.96806723 C4.64201681,4.96806723 4.94453782,5.27058824 4.94453782,5.64033613 L4.944,14.1142546 L13.0588235,14.1142857 L13.394958,13.7781513 C13.3344538,13.6235294 13.2840336,13.4621849 13.2436975,13.3008403 L13.2436975,13.3008403 L12.487395,13.3008403 C12.0235294,13.3008403 11.6470588,12.9243697 11.6470588,12.4605042 L11.6470588,12.4605042 L11.6470588,11.2168067 C11.6470588,10.7529412 12.0235294,10.3764706 12.487395,10.3764706 L12.487395,10.3764706 L13.2436975,10.3764706 C13.2840336,10.2151261 13.3344538,10.0537815 13.394958,9.89915966 L13.394958,9.89915966 L12.8907563,9.39495798 C12.5613445,9.06554622 12.5613445,8.53445378 12.8907563,8.20504202 L12.8907563,8.20504202 L13.7680672,7.32773109 C14.097479,6.99831933 14.6285714,6.99831933 14.9579832,7.32773109 L14.9579832,7.32773109 L15.4621849,7.83193277 C15.6168067,7.77142857 15.7781513,7.7210084 15.9394958,7.68067227 L15.9394958,7.68067227 L15.9394958,6.92436975 C15.9394958,6.4605042 16.3159664,6.08403361 16.7798319,6.08403361 L16.7798319,6.08403361 L18.0235294,6.08403361 C18.487395,6.08403361 18.8638655,6.4605042 18.8638655,6.92436975 L18.8638655,6.92436975 L18.8638655,7.68067227 C19.0252101,7.7210084 19.1865546,7.77142857 19.3411765,7.83193277 L19.3411765,7.83193277 L19.8453782,7.32773109 C20.1747899,6.99831933 20.7058824,6.99831933 21.0352941,7.32773109 L21.0352941,7.32773109 L21.9159664,8.20840336 C22.2453782,8.53781513 22.2453782,9.06890756 21.9159664,9.39831933 L21.9159664,9.39831933 L21.4117647,9.90252101 C21.4722689,10.0571429 21.5226891,10.2151261 21.5630252,10.3764706 L21.5630252,10.3764706 L22.3193277,10.3764706 C22.7831933,10.3764706 23.1596639,10.7529412 23.1596639,11.2168067 L23.1596639,11.2168067 L23.1596639,12.4605042 C23.1596639,12.9243697 22.7831933,13.3008403 22.3193277,13.3008403 L22.3193277,13.3008403 L21.5596639,13.3008403 C21.5193277,13.4621849 21.4689076,13.6235294 21.4084034,13.7781513 L21.4084034,13.7781513 L21.912605,14.2823529 C22.0436975,14.4134454 22.1277311,14.5848739 22.1512605,14.7697479 C22.3294118,14.8907563 22.497479,15.0285714 22.6453782,15.1831933 C23.3008403,15.8621849 23.6336134,16.8336134 23.6336134,18.0638655 L23.6336134,18.0638655 L23.6336134,19.7109244 C23.6336134,20.9445378 23.3008403,21.9159664 22.6453782,22.594958 C21.9630252,23.3008403 20.9680672,23.6605042 19.6840336,23.6605042 L19.6840336,23.6605042 L3.94957983,23.6605042 C2.66554622,23.6605042 1.67058824,23.3042017 0.988235294,22.594958 C0.332773109,21.912605 -1.43213441e-10,20.9445378 -1.43213441e-10,19.7109244 L-1.43213441e-10,19.7109244 L-1.43213441e-10,18.0638655 C-1.43213441e-10,16.8336134 0.332773109,15.8621849 0.988235294,15.1798319 C1.60728291,14.5394378 2.48362234,14.1840013 3.59968421,14.1235621 L3.6,5.64033613 C3.6,5.27058824 3.90252101,4.96806723 4.27226891,4.96806723 Z M3.91932773,17.9159664 C3.21680672,17.9159664 2.77983193,18.3495798 2.77983193,19.0487395 C2.77983193,19.394958 2.87731092,19.6705882 3.0789916,19.8722689 C3.28067227,20.0739496 3.5697479,20.1815126 3.91932773,20.1815126 C4.26890756,20.1815126 4.55798319,20.0739496 4.75966387,19.8722689 C4.95798319,19.6705882 5.05882353,19.3915966 5.05882353,19.0487395 C5.05882353,18.3495798 4.62184874,17.9159664 3.91932773,17.9159664 Z M7.20672269,17.9159664 C6.50420168,17.9159664 6.06722689,18.3495798 6.06722689,19.0487395 C6.06722689,19.394958 6.16470588,19.6705882 6.36638655,19.8722689 C6.56806723,20.0739496 6.85714286,20.1815126 7.20672269,20.1815126 C7.55630252,20.1815126 7.84537815,20.0739496 8.04705882,19.8722689 C8.2487395,19.6705882 8.34957983,19.3915966 8.34621849,19.0487395 C8.34621849,18.3495798 7.9092437,17.9159664 7.20672269,17.9159664 Z M18.0201681,6.92436975 L16.7764706,6.92436975 L16.7764706,8.38319328 C16.5042017,8.41008403 16.2319328,8.46386555 15.9697479,8.54453782 C15.7310924,8.61848739 15.502521,8.71932773 15.287395,8.84705882 L15.287395,8.84705882 L14.3630252,7.92268908 L13.4857143,8.8 L13.8823529,9.19663866 L14.4168067,9.72436975 C14.3394958,9.85546218 14.2722689,9.98991597 14.2151261,10.1310924 C14.0773109,10.4773109 13.989916,10.8436975 13.9529412,11.2168067 L13.9529412,11.2168067 L12.4941176,11.2168067 L12.4941176,12.4605042 L13.9529412,12.4605042 C13.9596639,12.5142857 13.9663866,12.5647059 13.9731092,12.6151261 C14.0235294,13.0117647 14.1344538,13.394958 14.3092437,13.7546218 C14.3428571,13.8218487 14.3798319,13.8857143 14.4168067,13.9495798 L14.4168067,13.9495798 L13.8890756,14.4773109 L13.492437,14.8739496 L14.3697479,15.7512605 L14.8302521,15.2907563 L15.2907563,14.8302521 L15.3815126,14.8806723 C15.512605,14.9546218 15.6504202,15.0151261 15.7915966,15.0689076 C16.1109244,15.1865546 16.4436975,15.2605042 16.7831933,15.2941176 L16.7831933,15.2941176 L16.7831933,16.7529412 L18.0268908,16.7529412 L18.0268908,15.2941176 C18.4773109,15.2470588 18.8806723,15.1428571 19.2302521,14.9815126 C19.3277311,14.9378151 19.4218487,14.887395 19.5159664,14.8302521 L19.5159664,14.8302521 L20.4403361,15.7546218 L21.3210084,14.8773109 L20.3966387,13.9529412 C20.5613445,13.6739496 20.6823529,13.3747899 20.7563025,13.0588235 C20.8033613,12.8605042 20.8403361,12.6621849 20.8605042,12.4605042 L20.8605042,12.4605042 L22.3193277,12.4605042 L22.3193277,11.2168067 L20.8571429,11.2168067 C20.8504202,11.1630252 20.8436975,11.1092437 20.8369748,11.0588235 C20.7663866,10.5378151 20.6151261,10.0941176 20.3932773,9.72436975 L20.3932773,9.72436975 L21.3176471,8.8 L20.4369748,7.92268908 L19.512605,8.84705882 C19.3378151,8.7394958 19.1495798,8.65210084 18.9546218,8.58487395 C18.6521008,8.48067227 18.3394958,8.41344538 18.0201681,8.38319328 L18.0201681,8.38319328 L18.0201681,6.92436975 Z M17.405042,10.0638655 C17.9563025,10.0638655 18.3932773,10.2151261 18.6991597,10.507563 C19.0184874,10.8134454 19.1798319,11.2638655 19.1798319,11.8386555 C19.1798319,12.4134454 19.0184874,12.8605042 18.6991597,13.1697479 C18.3932773,13.4621849 17.9563025,13.6134454 17.405042,13.6134454 C16.8537815,13.6134454 16.4168067,13.4621849 16.1109244,13.1697479 C15.7915966,12.8638655 15.6302521,12.4134454 15.6302521,11.8386555 C15.6302521,11.2638655 15.7915966,10.8168067 16.1109244,10.507563 C16.4168067,10.2117647 16.8537815,10.0638655 17.405042,10.0638655 Z M10.0537815,0.221848739 C11.3277311,1.4487395 11.9697479,3.27058824 11.9697479,5.64033613 C11.9697479,8 11.3277311,9.81848739 10.0638655,11.0453782 C9.9394958,11.1663866 9.77142857,11.2336134 9.59663866,11.2336134 C9.22689076,11.2336134 8.92436975,10.9310924 8.92436975,10.5613445 C8.92436975,10.3798319 8.99831933,10.205042 9.12941176,10.0806723 C10.1210084,9.11596639 10.6252101,7.62352941 10.6252101,5.64033613 C10.6252101,3.65042017 10.1176471,2.15462185 9.11932773,1.18991597 C8.85042017,0.931092437 8.84369748,0.507563025 9.10252101,0.238655462 C9.36134454,-0.0302521008 9.78487395,-0.0369747899 10.0537815,0.221848739 Z M7.36134454,1.9092437 C8.24537815,2.76302521 8.69579832,4.02016807 8.69579832,5.64369748 C8.69579832,7.26386555 8.2487395,8.51764706 7.37142857,9.37142857 C7.24369748,9.48907563 7.07563025,9.55630252 6.90084034,9.55630252 C6.53109244,9.55630252 6.22857143,9.25378151 6.22857143,8.88403361 C6.22857143,8.70252101 6.30252101,8.52773109 6.43361345,8.40336134 C7.04201681,7.81176471 7.3512605,6.88403361 7.3512605,5.64369748 C7.3512605,4.40336134 7.04201681,3.46554622 6.42689076,2.87731092 C6.15798319,2.61848739 6.1512605,2.19495798 6.41008403,1.92605042 C6.66890756,1.65714286 7.09243697,1.65042017 7.36134454,1.9092437 Z" id="Configurar-modem_3Masa"></path>
        </g>
    </g>
</svg>

<svg width="24" height="24" viewBox="0 0 24 24" xmlns="http://www.w3.org/2000/svg"><path d="M4.272 4.968c.37 0 .673.303.673.672l-.001 8.474h8.115l.336-.336a3.935 3.935 0 01-.151-.477h-.757a.84.84 0 01-.84-.84v-1.244a.84.84 0 01.84-.84h.757c.04-.162.09-.323.151-.478l-.504-.504a.84.84 0 010-1.19l.877-.877a.84.84 0 011.19 0l.504.504c.155-.06.316-.111.477-.151v-.757a.84.84 0 01.84-.84h1.245a.84.84 0 01.84.84v.757c.161.04.323.09.477.15l.504-.503a.84.84 0 011.19 0l.881.88c.33.33.33.86 0 1.19l-.504.505c.06.154.11.312.151.473h.756a.84.84 0 01.84.84v1.245a.84.84 0 01-.84.84h-.76c-.04.161-.09.323-.15.477l.504.504a.839.839 0 01.238.488c.178.12.346.259.494.413.656.68.989 1.65.989 2.88v1.648c0 1.234-.333 2.205-.989 2.884-.682.706-1.677 1.066-2.961 1.066H3.95c-1.284 0-2.28-.357-2.962-1.066C.333 21.913 0 20.945 0 19.711v-1.647c0-1.23.333-2.202.988-2.884.62-.64 1.496-.996 2.612-1.056V5.64c0-.37.303-.672.672-.672zM3.92 17.916c-.702 0-1.14.434-1.14 1.133 0 .346.098.622.3.823.202.202.49.31.84.31s.639-.108.84-.31c.199-.201.3-.48.3-.823 0-.7-.437-1.133-1.14-1.133zm3.288 0c-.703 0-1.14.434-1.14 1.133 0 .346.098.622.3.823.201.202.49.31.84.31s.638-.108.84-.31c.202-.201.303-.48.3-.823 0-.7-.438-1.133-1.14-1.133zM18.02 6.924h-1.244v1.46c-.272.026-.544.08-.806.16a3.175 3.175 0 00-.683.303l-.924-.924-.877.877.396.397.535.527a3.051 3.051 0 00-.202.407 4.005 4.005 0 00-.262 1.086h-1.459v1.244h1.459l.02.154c.05.397.161.78.336 1.14.034.067.07.13.108.195l-.528.527-.397.397.878.877.46-.46.46-.46.092.05c.13.074.268.134.41.188.319.118.652.192.991.225v1.459h1.244v-1.459c.45-.047.854-.151 1.203-.312.098-.044.192-.095.286-.152l.924.925.881-.878-.924-.924c.164-.28.285-.578.36-.894.046-.198.083-.397.104-.598h1.458v-1.244h-1.462l-.02-.158a3.474 3.474 0 00-.444-1.335l.925-.924-.881-.877-.924.924a2.819 2.819 0 00-.558-.262 4.031 4.031 0 00-.935-.202V6.924zm-.615 3.14c.551 0 .988.151 1.294.444.32.305.48.756.48 1.33 0 .575-.16 1.023-.48 1.332-.306.292-.743.443-1.294.443s-.988-.15-1.294-.443c-.32-.306-.48-.757-.48-1.331 0-.575.16-1.022.48-1.331.306-.296.743-.444 1.294-.444zM10.054.222C11.328 1.449 11.97 3.27 11.97 5.64c0 2.36-.642 4.178-1.906 5.405a.674.674 0 01-1.14-.484c0-.181.074-.356.205-.48.992-.965 1.496-2.457 1.496-4.44 0-1.99-.507-3.486-1.506-4.451a.67.67 0 01-.016-.951.67.67 0 01.95-.017zM7.36 1.909c.884.854 1.335 2.111 1.335 3.735 0 1.62-.447 2.874-1.325 3.727a.696.696 0 01-.47.185.674.674 0 01-.672-.672c0-.181.074-.356.205-.48.608-.592.917-1.52.917-2.76 0-1.24-.309-2.178-.924-2.767a.67.67 0 01-.017-.95.67.67 0 01.951-.018z" fill="#5CB615" fill-rule="nonzero"/></svg>
